!!!!SEGMENT: pl-sa--554-a-ix-34--008_pleyel-ignace--sonata.krn
!!!cenid: 18xx:571
!!!COM: Pleyel, Ignace
!!!COM-rismID: pe24761
!!!CDT: 1757/06/18-1831/11/14
!!!CNT: French
!!!OTL: Sonata
!!!PDT:
!!!AGN: Secular; Sonata
!!!SMS-siglum: PL-SA
!!!SMS-shelfmark: 554/A IX 34
!!!SMS-shelfwork: 008 W
!!!SMS-variant:
!!!SMS-altvar:
!!!NIFC-rismSourceID: 1001069592
!!!NIFC-rismChildID: 1001069600
!!!NIFC-islandoraID: none
!!!URL-pdf-islandora:
!!!URL-scan: https://bc.bdsandomierz.pl/dlibra/publication/1310/edition/1278/content @EN{Scan in the Sandomierz Diocese Digital Library} @PL{Skany w portalu Cyfrowa Biblioteka Diecezjalna w Sandomierzu}
!!!IIIF:
!!!ONB-nifc: Str. 6 – str. 7 (s. 4)
!!!AIN: 1 empty
!!!key:
**kern	**kern	**dynam
*part1	*part1	*part1
*staff2	*staff1	*
*Iempty	*Ipiano	*
*	*I"Piano	*
*clefF4	*clefG2	*
*k[f#]	*k[f#]	*
*G:	*G:	*
*M2/4	*M2/4	*
*>[A,A,B,B,C,C,D,D,E,E,F,F,G,G,H,H,I,I,J,J]	*>[A,A,B,B,C,C,D,D,E,E,F,F,G,G,H,H,I,I,J,J]	*
*>A	*>A	*
!	!LO:TX:a:Bi:t=Sonata \nAndante Con \nVariazionis:problem='Sonata \nAndante Con \nVariazionis' po lewej stronie systemu	!
16r	16d/	.
=1	=1	=1
16G\LL	4bS\	.
16d\	.	.
16B\	.	.
16d\JJ	.	.
16F#\LL	(>16dd\LL	.
16d\	16cc\	.
16c\	16b\	.
16d\JJ	16a\JJ)	.
=2	=2	=2
16G\LL	8.dd\L	.
16d\	.	.
16B\	.	.
16d\JJ	16b\Jk	.
8G\	16g/	.
!	!LO:TX:a:t=P:problem=w źródle łuk wytarty	!
.	(>16ggLL 16ee\	.
8r	16ff# 16dd\	.
.	16eeJJ 16cc\	.
=3	=3	=3
8r	16ddLL 16b\	.
.	16cc 16a\	.
!LO:TX:a:t=P:problem=mixed beam	!	!
8D\L	16b 16g\	.
.	16aJJ 16f#\)	.
8G\	16.bLL 16.g\	.
.	32aK 32f#\	.
8GG/J	16.b 16.g\	.
.	32ccJJk 32a\	.
=4	=4	=4
!LO:TX:a:t=P:problem=mixed beam	!	!
8D\L	4b 4g\	.
8DD/	.	.
8D\J	8a 8f#\	.
8r	16r	.
.	16d/	.
=5	=5	=5
8r	8.g\L	.
8B 8E\	.	.
.	16gg\Jk	.
4c#X 4A\	(>16ee\LL	.
.	16cc#X\	.
.	16a\	.
.	16g\JJ)	.
=6	=6	=6
4d 4D\	16f#\LL	.
.	16a\	.
.	16dd\	.
.	16ff#\JJ	.
8r	8.aa\L	.
8D\	.	.
.	16ff#\Jk	.
=7	=7	=7
4G\	16.ee\LL	.
.	32ff#\K	.
.	16.gg\	.
.	32ee\JJk	.
!LO:TX:a:t=P:problem=mixed beam	!	!
8A\L	8dd\L	.
!	!LO:TX:a:t=P:problem=W źródle plama przypominająca nute 8g	!
8AA/J	8cc#X\J	.
=8	=8	=8
*	*^	*
8D/L	4ee 4a/	4g\	.
8AA/	.	.	.
8DD/J	8dd 8a 8f#/	4ryy	.
!LO:N:vis=8	!LO:N:vis=8	!	!
16r	16r	.	.
=:|!|:	=:|!|:	=:|!|:	=:|!|:
*>B	*>B	*	*
16r	16d/	.	.
*	*v	*v	*
=9	=9	=9
16B\LL	8.dd\L	.
16fn\	.	.
16d\	.	.
16f\JJ	16cc\Jk	.
16G#X\LL	16b`>\LL	.
16e\	(>16ffn\	.
16B\	16ee\	.
16e\JJ	16dd\JJ)	.
!!LO:LB:g=original
=10	=10	=10
16A\LL	(>8.dd\L	.
16e\	.	.
16c#X\	.	.
16e\JJ	16cc#X\Jk)	.
16F#X\LL	8ccn\L	.
16d\	.	.
16A\	16r	.
16d\JJ	16a\Jk	.
=11	=11	=11
16G\LL	4b\	.
16d\	.	.
16B\	.	.
16d\JJ	.	.
.	16qqcc/LL	.
.	16qqb/JJ	.
16C\LL	16a\LL	.
16A\	16ee\	.
.	8qdd/	.
16E\	16cc\	.
.	8qb/	.
16A\JJ	16a\JJ	.
=12	=12	=12
16D\LL	8.g/L	.
16B\	.	.
16G\	.	.
16B\JJ	16a/Jk	.
16D`>\LL	8f#/L	.
(>16A\	.	.
16G\	16r	.
16F#\JJ)	16d/Jk	.
=13	=13	=13
16G\LL	8b\L	.
16d\	.	.
16B\	(>32cc\LL	.
.	32b\	.
16d\JJ	32a\	.
.	32b\JJJ)	.
16A\LL	16dd\LL	.
16f#\	16cc\	.
16d\	16b\	.
16f#\JJ	16a\JJ	.
=14	=14	=14
16B\LL	(>8.dd\L	.
16g\	.	.
16d\	.	.
16g\JJ	32ee\LL	.
.	32ff#\JJJ	.
8B\	32gg\LLL	.
.	32aa\	.
.	32bb\	.
.	32aa\JJJ	.
8r	32gg\LLL	.
.	32ff#\	.
.	32ee\	.
.	32dd\JJJ)	.
=15	=15	=15
8c\L	8ee\L	.
.	8qcc/	.
8A\J	16ccc\L	.
.	16aa\JJ	.
8d\L	(>16gg\LL	.
.	16ff#\	.
8D\J	16ee\	.
.	16ff#\JJ)	.
=16	=16	=16
8G\L	4aa 4dd 4cc\	.
8D\	.	.
8GG\J	8gg 8dd 8b\	.
!LO:N:vis=8	!	!
16r	16r	.
=:|!|:	=:|!|:	=:|!|:
*>C	*>C	*
!	!LO:TX:a:t=P:problem=w źródle tajemniczy znak pomiędzy 'Var' a '1.'	!
!	!LO:TX:a:Bi:t=Var 1.	!
16r	16g/	p
=17	=17	=17
8D 8BB 8GG/	(>32b\LLL	.
.	32cc\	.
.	32b\	.
.	32a\JJJ)	.
8r	16b'>\LL	.
.	16g'>\JJ	.
8F# 8D 8AA\	(>32cc\LLL	.
.	32dd\	.
.	32cc\	.
.	32b\JJJ)	.
8r	16cc'>\LL	.
.	16a'>\JJ	.
=18	=18	=18
[4G 4D [4BB/	(>8.dd\L	.
.	32ee\LL	.
.	32ff#\JJJ)	.
8G] 8D 8BB/]	8gg\L	.
8r	16r	.
.	16dd\Jk	.
=19	=19	=19
8F# 8D 8AA/	(>32cc\LLL	.
.	32dd\	.
.	32cc\	.
.	32b\JJJ)	.
8r	16cc'>\LL	.
.	16a'>\JJ	.
8D 8BB 8GG/	32b\LLL	.
.	32cc\	.
.	32b\	.
.	32a\JJJ	.
8r	16b'>\LL	.
.	16g'>\JJ	.
!!LO:LB:g=original
=20	=20	=20
[<4D 4AA [>4DD/	8.a/L	.
.	(<64b/LLL	.
.	64a/J	.
.	32g/	.
8D] 8AA 8DD/]	32f#/	.
.	32e/JJJ	.
!	!LO:N:vis=8	!
.	16d/LL)	.
8r	16r	.
.	16d/JJ	.
=21	=21	=21
8B 8E\	(<32g/LLL	.
.	32a/	.
.	32g/	.
.	32f#/JJJ)	.
8r	16g'</LL	.
.	16g'</JJ	.
8G 8E 8C#X\	(<32a/LLL	.
.	32b/	.
.	32a/	.
.	32g/JJJ)	.
8r	16a'</LL	.
.	16a'</JJ	.
=22	=22	=22
4F# 4D\	8.f#/L	.
.	16g/Jk	.
4r	(>16a\LL	.
.	16b\	.
.	16cc#X\	.
.	16dd\JJ)	.
=23	=23	=23
8D 8AA/	(<32f#/LLL	.
.	32g/	.
.	32f#/	.
.	32e/JJJ)	.
8r	16f#'</LL	.
.	16f#'</JJ	.
8G 8C#X 8AA\	(<32e/LLL	.
.	32f#/	.
.	32e/	.
.	32d/JJJ)	.
8r	16e'</LL	.
.	16e'</JJ	.
=24	=24	=24
*tremolo	*	*
!LO:TX:a:t=P:problem=w źródle 4 kreski nad tremolo	!	!
16G 16D\L	16d/LL	.
16G 16D\	16d/	.
16G 16D\	16d/	.
16G 16D\J	16d/JJ	.
*Xtremolo	*	*
!	!LO:N:vis=8.	!
8F# 8D\	8d/	.
16r	16r	.
=:|!|:	=:|!|:	=:|!|:
*>D	*>D	*
16r	16dd\	.
=25	=25	=25
8fn 8d 8B\	(>32dd\LLL	.
.	32ee\	.
.	32dd\	.
.	32cc#X\JJJ)	.
8r	16dd`>\LL	.
.	16dd`>\JJ	.
8e 8B 8G#X\	(>32dd\LLL	.
.	32ee\	.
.	32dd\	.
.	32cc#\JJJ)	.
8r	16dd`>\LL	.
.	16dd`>\JJ	.
=26	=26	=26
*^	*	*
!	!LO:TX:a:t=P:problem=note position	!	!
4e 4A\	4Gn\	8.cc#X\L	.
.	.	16ee\Jk	.
8d 8A 8F#\	4ryy	8aa\L	.
8r	.	16rdd	.
.	.	16ccn\Jk	.
*v	*v	*	*
=27	=27	=27
8d 8B 8G\	(>32b\LLL	.
.	32cc\	.
.	32b\	.
.	32a\JJJ)	.
8r	16b`>\LL	.
.	16b`>\JJ	.
8A 8E 8C\	16a'>\LL	.
.	16a'>\	.
8r	16ee'>\	.
.	16ee'>\JJ	.
=28	=28	=28
4B 4D\	8.g/L	sf
!	!LO:N:vis=16	!
.	32a/LL	.
!	!LO:N:vis=16	!
.	32g/JJJ	.
8A 8D\	8a/L	.
8r	16r	.
.	16d/Jk	.
!!LO:LB:g=original
=29	=29	=29
8D 8BB 8GG/	(>32b\LLL	.
.	32cc\	.
.	32b\	.
.	32a\JJJ)	.
8r	16b'>\LL	.
.	16g'>\JJ	.
8F# 8D 8AA/	(>32cc\LLL	.
.	32dd\	.
.	32cc\	.
.	32b\JJJ)	.
8r	16cc'>\LL	.
.	16a'>\JJ	.
=30	=30	=30
[>4G 4D [<4BB\	8.dd\L	.
.	32ee\LL	.
.	32ff#\JJJ	.
8G] 8D 8BB\]	8gg\L	.
8r	16r	.
.	16b\Jk	.
=31	=31	=31
8A 8E 8C\	(<32a/LLL	p
.	32b/	.
.	32a/	.
.	32g/JJJ)	.
8r	16a'</LL	.
.	16cc'</JJ	.
8c 8A 8D\	(<32f#/LLL	.
.	32g/	.
.	32f#/	.
.	32e/JJJ)	.
8r	16f#'</LL	.
.	16a'</JJ	.
=32	=32	=32
*tremolo	*	*
!LO:TX:a:t=P:problem=w źródle 4 kreski nad tremolo	!	!
16B 16G\L	16g/LL	.
16B 16G\	16g/	.
16B 16G\	16g/	.
16B 16G\J	16g/JJ	.
*Xtremolo	*	*
8B 8G\	8g/	.
16r	16r	.
=:|!|:	=:|!|:	=:|!|:
*>E	*>E	*
*k[cancel]	*k[cancel]	*
*k[b-e-]	*k[b-e-]	*
!	!LO:TX:a:t=P:problem=w źródle tajemniczy znak pomiędzy 'Var&colon;' a '2&colon;'	!
!	!LO:TX:a:Bi:t=Var&colon; 2&colon;	!
16r	16d/	.
=33	=33	=33
16G\LL	8.gS\L	.
16d\	.	.
16B-\	.	.
16d\JJ	16b-\Jk	.
16A\LL	16b-\LL	.
16d\	16a\	.
16c\	16g\	.
16d\JJ	16f#X\JJ	.
=34	=34	=34
!	!LO:TUP:b:problem=klamra łukowa	!
16G\LL	24g/LL	.
.	24b-/	.
16d\	.	.
.	24dd/JJ	.
16B-\	4dd/	.
16d\JJ	.	.
16G\LL	.	.
16d\	.	.
16B-\	(<32cc/LLL	.
.	32b-/	.
16d\JJ	32a/	.
.	32g/JJJ)	.
=35	=35	=35
4A 4E-X 4C\	(>16b-\LL	.
.	16a\)	.
.	(>16cc\	.
.	16b-\JJ)	.
8r	(>16dd\LL	.
.	16cc\JJ)	.
!	!LO:TUP:a:problem=klamra łukowa	!
8A 8E- 8C\	24ee-\LL	.
.	24cc\	.
.	24a\JJ	.
=36	=36	=36
4B-X 4D\	(<8.g/L	.
.	16a/Jk	.
8A 8D\	8f#X/L)	.
8r	16r	.
.	16d/Jk	.
=37	=37	=37
16GG/LL	8.g/L	.
16D/	.	.
16BB-/	.	.
16D/JJ	16b-/Jk	.
*rep	*	*
16GG/LL	(<16cc/LL	.
16D/	16b-/	.
16BB-/	16a/	.
16D/JJ	16g/JJ)	.
*Xrep	*	*
=38	=38	=38
16AA/LL	(<32f/LLL	.
.	32en/	.
16F/	32f/	.
.	32g/JJJ	.
16C/	32a/LLL	.
.	32g/	.
16F/JJ	32a/	.
.	32b-/JJJ)	.
!!LO:LB:g=original
16AA\LL	8.cc\L	.
16F\	.	.
16C\	.	.
16F\JJ	32dd\LL	.
.	32ee-\JJJ	.
=39	=39	=39
!	!LO:TUP:a:problem=klamra łukowa	!
8D\L	24dd\LL	.
.	24bb-\	.
.	24ff\JJ	.
!	!LO:TUP:a:problem=klamra łukowa	!
8E-\J	24gg\LL	.
.	24ee-\	.
.	24cc\JJ	.
8dL 8F\	8b-\L	.
8cJ 8F\	8at>\J	.
=40	=40	=40
8B-\L	4cc 4e-X/	.
8G\J	.	.
8D/	8b- 8d/	.
16r	16r	.
=:|!|:	=:|!|:	=:|!|:
*>F	*>F	*
16r	16dd\	.
=41	=41	=41
16F#\LL	16dd\LL	.
16d\	16a\J	.
16A\	8.aS\J	.
16d\JJ	.	.
*rep	*	*
16F#\LL	.	.
16d\	(>16a\LL	.
16A\	16b-\	.
16d\JJ	16cc\JJ)	.
*Xrep	*	*
=42	=42	=42
16G\LL	(>16cc\LL	.
16d\	16b-\	.
16B-\	16a\	.
16d\JJ	16g\JJ)	.
*rep	*	*
16G\LL	16g\LL	.
16d\	16ddsS\	.
16B-\	16gg\	.
16d\JJ	16ee-\JJ	.
*Xrep	*	*
=43	=43	=43
16F#\LL	16dd\LL	.
16d\	16a\J	.
16A\	8.aS\J	.
16d\JJ	.	.
*rep	*	*
16F#\LL	.	.
16d\	16a\LL	.
16A\	16b-\	.
16d\JJ	16cc\JJ	.
*Xrep	*	*
=44	=44	=44
16G\LL	(>16cc\LL	.
16d\	16b-\	.
16B-\	16at>\	.
16d\JJ	16g\JJ)	.
!	!LO:TUP:a:problem:problem=klamra łukowa	!
8G\	24g\LL	.
.	24b-\	.
.	24dd\	.
8r	24gg\	.
.	24ff#X\	.
.	24ffn\JJ	.
=45	=45	=45
*rep	*	*
16G\LL	(>8.ee-\L	sf
16d\	.	.
16B-X\	.	.
16d\JJ	16dd\Jk	.
8G\	16cc\LL	.
.	16b-\	.
8r	16a\	.
.	16g\JJ)	.
*Xrep	*	*
=46	=46	=46
!	!LO:TUP:b:problem=klamra łukowa	!
!	!	!LO:DY:b:rj
8D/L	24f#X/LL	p
.	24a/	.
.	24dd/J	.
16C/L	[>8dd/J	.
16BB-/JJ	.	.
8.AA/L	16dd\LL]	.
.	32cc\L	.
.	(>32dd\JJJ	.
.	32ffn\LLL	.
.	32ee-\	.
16FF#/Jk	32dd\	.
.	32cc\JJJ)	.
=47	=47	=47
!	!LO:TUP:a:problem=klamra łukowa	!
8GG/L	24b-\LL	.
.	24gg\	.
.	24dd\JJ	.
.	8qff/	.
!	!LO:TUP:a:problem=klamra łukowa	!
8C/J	24ee-\LL	.
.	24dd\	.
.	24cc\JJ	.
!LO:TX:a:t=P:problem=mixed beam	!	!
8D\L	8b-L 8g\	.
8DD/J	8aJ 8f#Xt>\	.
=48	=48	=48
8G\L	4a 4f#X\	.
8D\J	.	.
8GG/	8g\	.
16r	16r	.
!!LO:PB:g=original
=:|!	=:|!	=:|!
*>G	*>G	*
*k[cancel]	*k[cancel]	*
*k[f#]	*k[f#]	*
!	!LO:TX:a:t=P:problem=w źródle tajemniczy znak pomiędzy 'Var&colon;' a '3.'	!
!	!LO:TX:a:Bi:t=Var&colon; 3.	!
16D\	16r	.
=49	=49	=49
4B 4G\	32r	.
.	32dd\LLL	.
.	32cc#X\	.
.	32dd\JJJ	.
.	32ee\LLL	.
.	32dd\	.
.	32cc#\	.
.	32dd\JJJ	.
4c 4A\	32r	.
.	32dd\LLL	.
.	32cc#\	.
.	32dd\JJJ	.
.	32ee\LLL	.
.	32dd\	.
.	32cc#\	.
.	32dd\JJJ	.
=50	=50	=50
4d 4B\	32r	.
.	(>32dd\LLL	.
.	32ee\	.
.	32ff#\JJJ	.
.	32gg\LLL	.
.	32aa\	.
.	32bb\	.
.	32ccc\JJJ)	.
8r	16ddd'>\LL	.
.	16ddd'>\	.
8D\	16ddd'>\JJ	.
.	16r	.
=51	=51	=51
4c 4A\	32r	.
.	(>32dd\LLL	.
.	32cc#X\	.
.	32dd\JJJ	.
.	32ee\LLL	.
.	32dd\	.
.	32cc#\	.
.	32dd\JJJ)	.
4B 4G\	32r	.
.	(>32dd\LLL	.
.	32cc#\	.
.	32dd\JJJ	.
.	32ee\LLL	.
.	32dd\	.
.	32cc#\	.
.	32dd\JJJ)	.
=52	=52	=52
4A 4F#\	32r	.
.	(>32dd\LLL	.
.	32ee\	.
.	32ff#\JJJ	.
.	32gg\LLL	.
.	32aa\	.
.	32bb\	.
.	32ccc\JJJ)	.
8.r	16ddd'>\LL	.
.	16ddd'>\	.
.	16ddd'>\JJ	.
16D\	16r	.
=53	=53	=53
4B 4G\	32r	.
.	(>32dd\LLL	.
.	32cc#X\	.
.	32dd\JJJ	.
.	32ee\LLL	.
.	32dd\	.
.	32cc#\	.
.	32dd\JJJ)	.
4c#X 4E\	32r	.
.	(>32gg\LLL	.
.	32ee\	.
.	32dd\JJJ	.
.	32cc#X\LLL	.
.	32b\	.
.	32a\	.
.	32g\JJJ)	.
=54	=54	=54
4d 4D\	(>32f#\LLL	.
.	32a\	.
.	32b\	.
.	32cc#X\JJJ	.
.	32dd\LLL	.
.	32ee\	.
.	32ff#\	.
.	32gg\JJJ)	.
!!LO:LB:g=original
4r	16aa'>\LL	.
.	16bb'>\	.
.	16ccc#X'>\	.
.	16ddd'>\JJ	.
=55	=55	=55
4A\	16r	.
!	!LO:TX:a:t=P:problem=w źródle kropka przypominająca nute 16dd pod nuta 16ff#	!
.	16ff#sS\LL	.
.	16aa\	.
.	16ff#\JJ	.
4AA/	16r	.
.	16eesS\LL	.
.	16gg\	.
.	16ee\JJ	.
=56	=56	=56
4D\	32r	.
.	(<32d/LLL	.
.	32e/	.
.	32f#/JJJ)	.
.	(>32g\LLL	.
.	32a\	.
.	32b\	.
.	32cc#X\JJJ)	.
8.r	8dd\	.
.	16r	.
=:|!|:	=:|!|:	=:|!|:
*>H	*>H	*
16D\	16r	.
=57	=57	=57
4d 4B\	32r	.
.	(>32dd\LLL	.
.	32cc#X\	.
.	32dd\JJJ	.
.	32ee\LLL	.
.	32dd\	.
.	32cc#\	.
.	32dd\JJJ)	.
!	!LO:N:vis=32	!
4B 4G#X\	16r	.
.	32bb\LLL	.
.	32aa\JJJ	.
.	(>32gg#X\LLL	.
.	32ffn\	.
.	32ee\	.
.	32dd\JJJ)	.
=58	=58	=58
4c 4A\	32r	.
.	(>32ccn\LLL	.
.	32b\	.
.	32cc\JJJ	.
.	32dd\LLL	.
.	32cc\	.
.	32b\	.
.	32cc\JJJ)	.
4A 4F#\	16r	.
.	(>32aa\LLL	.
.	32gg\JJJ	.
.	32ff#\LLL	.
.	32ee\	.
.	32dd\	.
.	32cc\JJJ)	.
=59	=59	=59
4G 4E\	(>32b\LLL	.
.	32dd\	.
.	32ee\	.
.	32ff#\JJJ	.
.	32gg\LLL	.
.	32aa\	.
.	32bb\	.
.	32ccc\JJJ)	.
4r	(>16ddd\LL	.
.	16dd\	.
.	16ee\	.
.	16ccJJ 16a\)	.
=60	=60	=60
8r	4b 4g\	.
!LO:TX:a:t=P:problem=mixed beam	!	!
8D\L	.	.
8DD/J	8a 8f#\	.
16r	8r	.
16D\	.	.
=61	=61	=61
4B 4G\	32r	.
.	(>32dd\LLL	.
.	32cc#X\	.
.	32dd\JJJ	.
!	!LO:LB:g=original	!
.	32ee\LLL	.
.	32dd\	.
.	32cc#\	.
.	32dd\JJJ)	.
!LO:LB:g=original	!	!
4c 4A\	32r	.
.	(>32dd\LLL	.
.	32cc#\	.
.	32dd\JJJ	.
.	32ee\LLL	.
.	32dd\	.
.	32cc#\	.
.	32dd\JJJ)	.
=62	=62	=62
4d 4B\	32r	.
.	(>32dd\LLL	.
.	32ee\	.
.	32ff#\JJJ	.
.	32gg\LLL	.
.	32aa\	.
.	32bb\	.
.	32ccc\JJJ)	.
4r	16ddd\LL	.
.	16ddd\	.
.	16ddd\JJ	.
.	16r	.
=63	=63	=63
8c 8C\	16r	.
.	16eesS\LL	.
8r	16gg\	.
.	16ee\JJ	.
8d 8D\	16r	.
.	16ff#sS\LL	.
8r	16aa\	.
.	16ff#\JJ	.
=	=	=
4B 4G\	32r	.
.	(>32g\LLL	.
.	32a\	.
.	32b\JJJ	.
.	32cc\LLL	.
.	32dd\	.
.	32ee\	.
.	32ff#\JJJ	.
!	!LO:N:vis=8.	!
8r	8gg\)	.
=:|!	=:|!	=:|!
*>I	*>I	*
*clefF4	*clefG2	*
*M6/8	*M6/8	*
!	!LO:TX:a:t=P:problem=w źródle po lewej stronie systemu (przed Var&colon; 4. dodatkowa klamra	!
!	!LO:TX:a:t=P:problem=w źródle tajemniczy znak pomiędzy 'Var&colon;' a '4.'	!
!	!LO:TX:a:Bi:t=Var&colon; 4.	!
!	!LO:TX:b:i:t=presto&colon;	!
8r	8dd\	.
=64	=64	=64
8G\L	4.dd\	.
8B\	.	.
8d\J	.	.
8G\	8gg\	.
8r	8r	.
8r	8b\	.
=65	=65	=65
8G\L	4.b\	.
8B\	.	.
8d\J	.	.
4G\	8dd\	.
.	8r	.
8r	8g/	.
=66	=66	=66
8G\L	8g/L	.
8B\	8g/	.
8d\J	8g/J	.
.	8qb/	.
8D\L	8a\L	.
8A\	8g\	.
8d\J	8a\J	.
=67	=67	=67
8G\L	4.b\	.
8B\	.	.
8d\J	.	.
4G\	8g/	.
.	8r	.
8r	8dd\	.
=68	=68	=68
8G\L	4.dd\	.
8B\	.	.
8d\J	.	.
4G\	8gg\	.
.	8r	.
8r	8cc#X\	.
!!LO:LB:g=original
=69	=69	=69
8E\L	4.cc\	.
8G\	.	.
8A\J	.	.
4E\	8bb\	.
.	8r	.
8r	8bb\	.
=70	=70	=70
4F#\	8aa\L	.
.	8bb\	.
8D\	8aa\J	.
.	8qaa/	.
4A\	8gg\L	.
.	8ff#\	.
8C#X 8AA/	8ee\J	.
=71	=71	=71
8D\L	4.dd\	.
8F#\	.	.
8A\J	.	.
4D\	4r	.
=:|!|:	=:|!|:	=:|!|:
*>J	*>J	*
8r	8dd\	.
=72	=72	=72
8D\L	4.dd\	.
8B\	.	.
8d\J	.	.
4D\	8bb\	.
.	8r	.
8r	8ccn\	.
=73	=73	=73
8D\L	4.cc\	.
8F#X\	.	.
8d\J	.	.
4D\	8aa\	.
.	8r	.
8r	8b 8g\	.
=74	=74	=74
4G\	8bL 8g/	.
.	(<8a 8f#/	.
8r	8bJ 8g/	.
4GG/	8ddL 8b/	.
.	8cc 8a/	.
8r	8bJ 8g/)	.
=75	=75	=75
4.D\	(>4.b 4.g\	.
4DD/	8a 8f#\)	.
.	8r	.
8r	8gg\	.
=76	=76	=76
8BB\L	4.gg\	.
8D\	.	.
8G\J	.	.
8BB/	8bb\	.
4r	8r	.
.	8ee\	.
=77	=77	=77
8C\L	4.ee\	.
8E\	.	.
8G\J	.	.
8C/	8gg\	.
4r	8r	.
.	8ee 8cc\	.
=78	=78	=78
4.D\	(>8ddL 8b\	.
.	8ee 8cc\	.
.	8ddJ 8b\	.
4.DD/	8ccL 8a\	.
.	8b 8g\	.
.	8aJ 8f#\)	.
=79	=79	=79
8G\L	4g/	.
8D\	.	.
8BB\J	8r	.
!LO:N:vis=4	!LO:N:vis=4	!
8GG/	8r	.
==:|!	==:|!	==:|!
*-	*-	*-
!!!system-decoration: {(s1,s2)}
!!!RDF**kern: > = above
!!!RDF**kern: < = below
!!!EED: Wojciech Jakubiak-Danek
!!!EEV: 2020-12-14
!!!ENC: Anastazja Marusiak
!!!END: 2020-06-19
!!!YEC: Copyright 2022 Narodowy Instytut Fryderyka Chopina (https://polishscores.org)
!!!YEM: License CC-BY-4.0 (https://creativecommons.org/licenses/by/4.0)
